X:58
T:Fancy, A
M:4/4
L:1/16
Q:1/4=105
S:D.Wright, Extraordinary Collection, London 1713
Z:Pete Stewart, 2004 <www.hornpipemusic.co.uk>
K:Dmin
d2dA e2eA f2Af e2eA | d2AG F2d2 E2^c2 d2D2 |
a2ga b2gb a2gf e2c2 | f2fA B2g2 cfeg f2F2 |
fedc Bdef gfed ^cB^cA | dBAG FAdF Ddce d2D2 |
fedc Bdef gfed ^cB^cA | d2AG F2d2 E2c2 d2D2 ||
L:1/8
db2a gE2D | Ca2g fD2C | B,g2f eC2B, | Af2e dC2A, |
G,g ed ^c=B AG |\
L:1/16
F2ag a2F2 E2ge g2E2 | D2fe f2D2 C2ed e2C2 |
B,2d^c d2B,2 A2d2^c4 | abag f2D2 B,CB,A, G,2G,2 |
fefc d2B,2 gfgd e2C2 | fefc d2g2 cfeg f2F2 |
fedc Bdef gfed ^cB^cA | dBAG FABG Ddce d2D2 |
fed^c Bdef gfed ^cB^cA | d2AG F2d2 E2^c2 d2D2 |]

